contributed-vectors/wifianalyzer.svg

<svg xmlns="http://www.w3.org/2000/svg" xmlns:xlink="http://www.w3.org/1999/xlink" xml:space="preserve" id="Слой_1" x="0" y="0" style="enable-background:new 0 0 192 192" version="1.1" viewBox="0 0 192 192"><style>.st0{fill:#72dc98}.st1{fill:#fff}</style><image xlink:href="D:\DESIGN\туццццц\Новая папка (4)\marvin\30E0AF75.jpg" width="241" height="241" style="overflow:visible;enable-background:new" transform="translate(2.215 -221) scale(.7734)"/><path d="M96.1 7.4c-48.6-.1-87.9 39-88.7 86.9-.9 48.5 38.8 89.3 87.8 90.3 47 1 97-42.5 88.6-101.3-5.5-38.2-40.5-76.7-87.7-75.9z" class="st0"/><path d="M96.1 7.4c47.2-.8 82.2 37.7 87.7 75.9 8.4 58.8-41.6 102.2-88.6 101.3-49-1-88.6-41.8-87.8-90.3.8-47.9 40.1-87 88.7-86.9zm60.6 62.7c-.1-1.3-1.3-1.5-2.1-2.2-4.3-3.4-9-6.1-13.9-8.4C105.2 43.2 71.1 45.8 38.4 67c-2.6 1.7-4.1 3.2-1.8 6.1 2.6 3.2 5.2 6.5 7.7 9.8 1.2 1.5 2.2 1.8 3.9.4 10.9-9.1 24.2-12.9 37.7-14.9 17.8-2.7 34.8 1.5 50.5 10.1 3.1 1.7 6 5.4 9 5.3 3.5-.1 4.7-5.2 7.1-7.9.8-.9 1.9-1.6 2.6-2.6.8-.9 1.1-2.1 1.6-3.2zm-21.2 29.2c-.7-1.8-2-2.5-3.2-3.2-15.9-10.5-33.3-13.4-51.8-9.2-7.6 1.7-14.7 4.9-21.1 9.3-1.1.8-4.2 1.5-1.9 4.3 3.1 3.7 6 7.6 9 11.4.8 1 1.4 2.2 2.9 1.2 6.3-4.5 13.3-6.9 21-8 8.3-1.2 16.4-.5 23.5 3.6 8.6 5 9.3 5.4 15.4-2 .7-.8 1.9-1.3 2.3-2.2.9-2.2 2.5-3.7 3.9-5.2zm-22.6 28.8c0-.9 0-1-2.4-2.4-9.4-5.3-18.8-5.3-28.4-.4-3.3 1.7-3.4 3.2-1.2 5.9 4.5 5.6 9 11.2 13.1 17.1 1.6 2.4 2.4 2 3.8.3 5-5.8 8.7-12.6 14.1-18 .5-.6.6-1.6 1-2.5z" class="st0"/><path d="M45.3 83.9C41.6 79 38 74.3 34.4 69.5c27.9-25.3 83.9-31.5 122.7-.4-3.6 4.8-7.3 9.7-11.1 14.8-33.5-22.1-66.8-22.3-100.7 0z" class="st1"/><path d="M135.2 98.1c-4 5.3-7.7 10.2-11.6 15.2-18.8-12.3-37.5-12.3-56.2 0-3.9-5.2-7.7-10.3-11.5-15.3 19.1-18.4 61.2-18.3 79.3.1zM95.5 150.4c-6.1-8-11.7-15.5-17.3-22.8 8.1-8.8 23.8-9.1 34.9-.5-2.8 3.8-5.5 7.6-8.3 11.3-2.9 3.7-5.8 7.5-9.3 12z" class="st1"/></svg>

<?xml version="1.0" encoding="utf-8"?>
<!-- Generator: Adobe Illustrator 22.1.0, SVG Export Plug-In . SVG Version: 6.00 Build 0)  -->
<svg version="1.1" id="Слой_1" xmlns="http://www.w3.org/2000/svg" xmlns:xlink="http://www.w3.org/1999/xlink" x="0px" y="0px"
	 viewBox="0 0 192 192" style="enable-background:new 0 0 192 192;" xml:space="preserve">
<style type="text/css">
	.st0{fill:#72DC98;}
	.st1{fill:#FFFFFF;}
</style>
<image style="overflow:visible;enable-background:new    ;" width="241" height="241" xlink:href="D:\DESIGN\туццццц\Новая папка (4)\marvin\30E0AF75.jpg"  transform="matrix(0.7734 0 0 0.7734 2.215 -221)">
</image>
<path class="st0" d="M96.1,7.4C47.5,7.3,8.2,46.4,7.4,94.3c-0.9,48.5,38.8,89.3,87.8,90.3c47,1,97-42.5,88.6-101.3
	C178.3,45.1,143.3,6.6,96.1,7.4z"/>
<path class="st0" d="M96.1,7.4c47.2-0.8,82.2,37.7,87.7,75.9c8.4,58.8-41.6,102.2-88.6,101.3c-49-1-88.6-41.8-87.8-90.3
	C8.2,46.4,47.5,7.3,96.1,7.4z M156.7,70.1c-0.1-1.3-1.3-1.5-2.1-2.2c-4.3-3.4-9-6.1-13.9-8.4C105.2,43.2,71.1,45.8,38.4,67
	c-2.6,1.7-4.1,3.2-1.8,6.1c2.6,3.2,5.2,6.5,7.7,9.8c1.2,1.5,2.2,1.8,3.9,0.4c10.9-9.1,24.2-12.9,37.7-14.9
	c17.8-2.7,34.8,1.5,50.5,10.1c3.1,1.7,6,5.4,9,5.3c3.5-0.1,4.7-5.2,7.1-7.9c0.8-0.9,1.9-1.6,2.6-2.6
	C155.9,72.4,156.2,71.2,156.7,70.1z M135.5,99.3c-0.7-1.8-2-2.5-3.2-3.2C116.4,85.6,99,82.7,80.5,86.9c-7.6,1.7-14.7,4.9-21.1,9.3
	c-1.1,0.8-4.2,1.5-1.9,4.3c3.1,3.7,6,7.6,9,11.4c0.8,1,1.4,2.2,2.9,1.2c6.3-4.5,13.3-6.9,21-8c8.3-1.2,16.4-0.5,23.5,3.6
	c8.6,5,9.3,5.4,15.4-2c0.7-0.8,1.9-1.3,2.3-2.2C132.5,102.3,134.1,100.8,135.5,99.3z M112.9,128.1c0-0.9,0-1-2.4-2.4
	c-9.4-5.3-18.8-5.3-28.4-0.4c-3.3,1.7-3.4,3.2-1.2,5.9c4.5,5.6,9,11.2,13.1,17.1c1.6,2.4,2.4,2,3.8,0.3c5-5.8,8.7-12.6,14.1-18
	C112.4,130,112.5,129,112.9,128.1z"/>
<g>
	<path class="st1" d="M45.3,83.9c-3.7-4.9-7.3-9.6-10.9-14.4c27.9-25.3,83.9-31.5,122.7-0.4c-3.6,4.8-7.3,9.7-11.1,14.8
		C112.5,61.8,79.2,61.6,45.3,83.9z"/>
	<path class="st1" d="M135.2,98.1c-4,5.3-7.7,10.2-11.6,15.2c-18.8-12.3-37.5-12.3-56.2,0c-3.9-5.2-7.7-10.3-11.5-15.3
		C75,79.6,117.1,79.7,135.2,98.1z"/>
	<path class="st1" d="M95.5,150.4c-6.1-8-11.7-15.5-17.3-22.8c8.1-8.8,23.8-9.1,34.9-0.5c-2.8,3.8-5.5,7.6-8.3,11.3
		C101.9,142.1,99,145.9,95.5,150.4z"/>
</g>
</svg>
